icons/mail-alt.svg

<svg xmlns="http://www.w3.org/2000/svg" viewBox="0 0 24 24" fill="currentColor">
  <path d="M3.75 8c0-1.28579.96421-2.25 2.25-2.25h12c1.2858 0 2.25.96421 2.25 2.25v8c0 .0912-.0063.1817-.0185.271l-5.0101-5.0101 3.1196-1.59303c.3689-.18838.5152-.64014.3269-1.00904-.1884-.3689-.6402-.51524-1.0091-.32687L13.9027 10.25c-.1929-.0007-.386.0725-.5331.2197-.0293.0293-.0557.0604-.0791.0929l-.3127.1597c-.7109.3109-1.3675.2933-1.9398.0081l-.5048-.2577-.003-.003c-.1173-.1173-.2637-.1876-.416-.211L6.341 8.33196c-.3689-.18837-.82066-.04203-1.00904.32687-.18837.3689-.04203.82066.32687 1.00904L8.71218 11.227l-4.9556 4.9557C3.75222 16.1226 3.75 16.0617 3.75 16V8Zm10.0672 3.9779-.1762.09c-.012.0061-.0241.0119-.0365.0174-1.0813.4806-2.2176.4966-3.24-.0145l-.0057-.0029-.2424-.1238-5.69297 5.6931c.39951.3837.94984.6128 1.57657.6128h12c.5545 0 1.0825-.2327 1.4874-.6018l-5.6702-5.6703ZM6 19.75c-1.29372 0-2.4083-.6125-3.07855-1.5723-.01784-.0148-.03515-.0306-.05188-.0473-.10755-.1076-.17561-.2397-.20417-.3783C2.39908 17.2329 2.25 16.6383 2.25 16V8c0-2.11421 1.63579-3.75 3.75-3.75h12c2.1142 0 3.75 1.63579 3.75 3.75v8c0 2.0142-1.7358 3.75-3.75 3.75H6Z"/>
</svg>

<svg width="24" height="24" viewBox="0 0 24 24" fill="none" xmlns="http://www.w3.org/2000/svg">
<path fill-rule="evenodd" clip-rule="evenodd" d="M3.75 8C3.75 6.71421 4.71421 5.75 6 5.75H18C19.2858 5.75 20.25 6.71421 20.25 8V16C20.25 16.0912 20.2437 16.1817 20.2315 16.271L15.2214 11.2609L18.341 9.66787C18.7099 9.47949 18.8562 9.02773 18.6679 8.65883C18.4795 8.28993 18.0277 8.14359 17.6588 8.33196L13.9027 10.25C13.7098 10.2493 13.5167 10.3225 13.3696 10.4697C13.3403 10.499 13.3139 10.5301 13.2905 10.5626L12.9778 10.7223C12.2669 11.0332 11.6103 11.0156 11.038 10.7304L10.5332 10.4727L10.5302 10.4697C10.4129 10.3524 10.2665 10.2821 10.1142 10.2587L6.341 8.33196C5.9721 8.14359 5.52034 8.28993 5.33196 8.65883C5.14359 9.02773 5.28993 9.47949 5.65883 9.66787L8.71218 11.227L3.75658 16.1827C3.75222 16.1226 3.75 16.0617 3.75 16V8ZM13.8172 11.9779L13.641 12.0679C13.629 12.074 13.6169 12.0798 13.6045 12.0853C12.5232 12.5659 11.3869 12.5819 10.3645 12.0708L10.3588 12.0679L10.3588 12.0679L10.1164 11.9441L4.42343 17.6372C4.82294 18.0209 5.37327 18.25 6 18.25H18C18.5545 18.25 19.0825 18.0173 19.4874 17.6482L13.8172 11.9779ZM6 19.75C4.70628 19.75 3.5917 19.1375 2.92145 18.1777C2.90361 18.1629 2.8863 18.1471 2.86957 18.1304C2.76202 18.0228 2.69396 17.8907 2.6654 17.7521C2.39908 17.2329 2.25 16.6383 2.25 16V8C2.25 5.88579 3.88579 4.25 6 4.25H18C20.1142 4.25 21.75 5.88579 21.75 8V16C21.75 18.0142 20.0142 19.75 18 19.75H6Z" fill="black"/>
</svg>
